X: 1362
T: Mestim Bu Gece
C: Lavtacı Ovrik
O: Turkey
F: http://compmusic.upf.edu/node/140
N: hicazkar--sarki--kapali_curcuna--mestim_bu_gece--lavtaci_ovrik
N: makam= hicazkar
N: form= sarki
N: usul= kapali_curcuna = 10/8
M: 10/8
L: 1/16
K: C _1/4B _7/8e _7/8A ^f
Q: 1/4=200
%%MIDI tuningsystem comma53
g6e2 d2c4b2 a2g2  | g8-g2g2 {a}gfg4z2  | \
w:  Mes tim  *  bu  ge  |  ce   | 
a6b4c'4b2 a2g2  | g14f4z2  | 
w:  sen  de  ba  |  na   | 
g6a4g2 f2e2 f2g2  | a18g2  | d'4 c'2c'2 b2b2 a2a4g2  | \
w:  mest  o la *  rak   |  gel   |  mest  *  o *  la *  rak   | 
g18z2  | g6_b4b2 a2g2 f2g2  | 
w:  gel    |  Pey mâ ne  *  i   | 
a8-a2=f4fe f4  | e6g4g2 ^1/4f2e2 d2c2  | \
w:  şev  |  kim  gi bi   | 
d8-d2^1/4f2 ede6  | c6d4e4f6  | 
w:  sev  |  da  do la rak   | 
g8-g2g2 f2e2 d2c2  | B6c4B2 A2A4G2  | \
w:  gel  sev  |  da  do la *  rak   | 
G2A2 B2c2 d2e2 f2g4z2  | 
w:  gel   SAZ  | 
g6_b4b2 a2g2 f2g2  | a8-a2=f4fe f4  | \
w:  Pey mâ ne  *  i   |  şev  | 
e6g4g2 ^1/4f2e2 d2c2  | d8-d2^1/4f2 ede6  | 
w:  kim  gi bi   |  sev  | 
c6d4e4f6  | g8-g2g2 f2e2 d2c2  | B6c4B2 A2A4G2  | \
w:  da  do la rak   |  gel  sev  |  da  do la *  rak   | 
G4 =a2g2 =f2_1/4e2 ^d2e4z2  | 
w:  gel   SAZ  | 
c6_1/4e4=f2 g2=a4g2  | g4 c'2_b2 =a2g2 =f2=e2 ^d2e2  | \
w:  Bil sen  ne  *  ka  |  dar   | 
=f6g4=a2 g2f2 _1/4e2^d2  | 
w:  dök tü  fi  | 
_1/4e16-_1/4e4  | g6a4g2 f2e2 f2g2  | \
w:  râ  |  kın la  gö *  züm  | 
a18g2  | d'4 c'2c'2 b2b2 a2a4g2  | g18z2  | 
w:  yaş   |  dök *  tü  *  gö *  züm  |  yaş   | 
g6_b4b2 a2g2 f2g2  | a8-a2=f4fe f4  | \
w:  Pey mâ ne  *  i   |  şev  | 
e6g4g2 ^1/4f2e2 d2c2  | d8-d2^1/4f2 ede6  | 
w:  kim  gi bi   |  sev  | 
c6d4e4f6  | g8-g2g2 f2e2 d2c2  | B6c4B2 A2A4G2  | \
w:  da  do la rak   |  gel  sev  |  da  do la *  rak   | 
G2A2 B2c2 d2e2 f2g4z2  | 
w:  gel   SAZ  | 
g6_b4b2 a2g2 f2g2  | a8-a2=f4fe f4  | \
w:  Pey mâ ne  *  i   |  şev  | 
e6g4g2 ^1/4f2e2 d2c2  | d8-d2^1/4f2 ede6  | 
w:  kim  gi bi   |  sev  | 
c6d4e4f6  | g8-g2g2 f2e2 d2c2  | B6c4B2 A2A4G2  | \
w:  da  do la rak   |  gel  sev  |  da  do la *  rak   | 
G4 e2d2 c2B2 A2G4z2  | 
w:  gel   SAZ KARAR  | 
|


